Dominus_Funeral/22/devices/camera-web.svg

<svg xmlns="http://www.w3.org/2000/svg" width="24" height="24" viewBox="0 0 6.35 6.35"><defs><radialGradient gradientUnits="userSpaceOnUse" gradientTransform="matrix(.43919 0 0 .4549 -.07 279.51)" r="1.75" cy="23.08" cx="15.07" id="a"><stop offset="0" stop-color="#00000c"/><stop offset="1" stop-opacity="0"/></radialGradient></defs><path class="ColorScheme-Text" d="M3.175.265a2.495 2.495 0 0 0-1.377 4.573h-.286c-.832 0-.832.832-.832.832v.415h4.99V5.67s0-.832-.832-.832h-.286A2.494 2.494 0 0 0 3.175.265zm0 1.664a.832.832 0 0 1 .832.832.832.832 0 0 1-.832.831.832.832 0 0 1-.832-.831.832.832 0 0 1 .832-.832z" fill="#1a1a1a"/></svg>

<?xml version="1.0" encoding="UTF-8" standalone="no"?>
<svg
   xmlns:dc="http://purl.org/dc/elements/1.1/"
   xmlns:cc="http://creativecommons.org/ns#"
   xmlns:rdf="http://www.w3.org/1999/02/22-rdf-syntax-ns#"
   xmlns:svg="http://www.w3.org/2000/svg"
   xmlns="http://www.w3.org/2000/svg"
   xmlns:sodipodi="http://sodipodi.sourceforge.net/DTD/sodipodi-0.dtd"
   xmlns:inkscape="http://www.inkscape.org/namespaces/inkscape"
   width="24"
   height="24"
   viewBox="0 0 6.35 6.35"
   version="1.1"
   id="svg11"
   sodipodi:docname="camera-web.svg"
   inkscape:version="0.92.4 (5da689c313, 2019-01-14)">
  <metadata
     id="metadata15">
    <rdf:RDF>
      <cc:Work
         rdf:about="">
        <dc:format>image/svg+xml</dc:format>
        <dc:type
           rdf:resource="http://purl.org/dc/dcmitype/StillImage" />
        <dc:title></dc:title>
      </cc:Work>
    </rdf:RDF>
  </metadata>
  <sodipodi:namedview
     pagecolor="#ffffff"
     bordercolor="#666666"
     borderopacity="1"
     objecttolerance="10"
     gridtolerance="10"
     guidetolerance="10"
     inkscape:pageopacity="0"
     inkscape:pageshadow="2"
     inkscape:window-width="1138"
     inkscape:window-height="480"
     id="namedview13"
     showgrid="false"
     inkscape:zoom="9.8333333"
     inkscape:cx="1.0677966"
     inkscape:cy="12"
     inkscape:window-x="0"
     inkscape:window-y="25"
     inkscape:window-maximized="0"
     inkscape:current-layer="svg11" />
  <defs
     id="defs7">
    <radialGradient
       gradientUnits="userSpaceOnUse"
       gradientTransform="matrix(.43919 0 0 .4549 -.07 279.51)"
       r="1.75"
       cy="23.08"
       cx="15.07"
       id="a">
      <stop
         offset="0"
         stop-color="#00000c"
         id="stop2" />
      <stop
         offset="1"
         stop-opacity="0"
         id="stop4" />
    </radialGradient>
  </defs>
  <path
     class="ColorScheme-Text"
     d="M 3.175,0.265 A 2.495,2.495 0 0 0 1.798,4.838 H 1.512 C 0.68,4.838 0.68,5.67 0.68,5.67 V 6.085 H 5.67 V 5.67 c 0,0 0,-0.832 -0.832,-0.832 H 4.552 A 2.494,2.494 0 0 0 3.175,0.265 Z m 0,1.664 A 0.832,0.832 0 0 1 4.007,2.761 0.832,0.832 0 0 1 3.175,3.592 0.832,0.832 0 0 1 2.343,2.761 0.832,0.832 0 0 1 3.175,1.929 Z"
     id="path9"
     inkscape:connector-curvature="0"
     style="fill:#1a1a1a" />
</svg>
